icons/desktop/16/send-tab-to-device-left-16.svg

<svg width="16" height="16" viewBox="0 0 16 16" fill="none" xmlns="http://www.w3.org/2000/svg">
<path fill-rule="evenodd" clip-rule="evenodd" d="M12 2C12.6686 2 13.2844 2.05148 13.8389 2.12988C15.0618 2.30236 15.9999 3.33302 16 4.59277V11.4053C15.9998 12.5655 15.1948 13.5604 14.0869 13.8242L13.8613 13.8672C13.1516 13.969 12.5205 14 12 14C11.498 14 11.0258 13.9713 10.5869 13.9238L10.1602 13.8701C8.93741 13.6976 8.0002 12.6668 8 11.4072V4.59473C8.00013 3.35703 8.91608 2.30747 10.1387 2.13281L10.6553 2.06934C11.1568 2.01769 11.6095 2 12 2ZM11.375 11.5C11.03 11.5 10.75 11.78 10.75 12.125C10.75 12.47 11.03 12.75 11.375 12.75H12.625C12.97 12.75 13.25 12.47 13.25 12.125C13.25 11.78 12.97 11.5 12.625 11.5H11.375ZM12 3.5C11.5386 3.5 10.9797 3.52705 10.3516 3.61719C9.86469 3.68681 9.50014 4.1069 9.5 4.59473V10H14.5V4.59277C14.4999 4.10473 14.1368 3.68576 13.6299 3.61426C13.1387 3.54476 12.5929 3.5 12 3.5Z" fill="black"/>
<path d="M3.58398 5.91699C3.58399 5.546 4.03292 5.36009 4.29492 5.62207L6.37695 7.7041C6.53993 7.8671 6.53995 8.13098 6.37695 8.29297L4.29395 10.376C4.03195 10.6379 3.58305 10.453 3.58301 10.0811V8.75H0.75C0.335786 8.75 0 8.41421 0 8C0 7.58579 0.335786 7.25 0.75 7.25H3.58301V5.91602L3.58398 5.91699Z" fill="black"/>
</svg>

<!-- This Source Code Form is subject to the terms of the Mozilla Public
   - License, v. 2.0. If a copy of the MPL was not distributed with this
   - file, You can obtain one at http://mozilla.org/MPL/2.0/. -->
<svg xmlns="http://www.w3.org/2000/svg" width="16" height="16" fill="context-fill" fill-opacity="context-fill-opacity" viewBox="0 0 16 16">
    <path fill-rule="evenodd" d="M12 2c.669 0 1.284.051 1.839.13A2.494 2.494 0 0 1 16 4.593v6.812c0 1.16-.805 2.155-1.913 2.42l-.226.042a13 13 0 0 1-3.274.057l-.427-.054A2.49 2.49 0 0 1 8 11.407V4.595c0-1.238.916-2.288 2.139-2.462l.516-.064C11.157 2.018 11.61 2 12 2m-.625 9.5a.625.625 0 0 0 0 1.25h1.25a.625.625 0 0 0 0-1.25zm.625-8a12 12 0 0 0-1.648.117.99.99 0 0 0-.852.978V10h5V4.593a.995.995 0 0 0-.87-.979A12 12 0 0 0 12 3.5" clip-rule="evenodd" />
    <path d="M3.584 5.917c0-.371.449-.557.71-.295l2.083 2.082a.416.416 0 0 1 0 .589l-2.083 2.083a.417.417 0 0 1-.711-.295V8.75H.75a.75.75 0 0 1 0-1.5h2.833z" />
</svg>
